svgs/duotone/user-doctor.svg

<svg xmlns="http://www.w3.org/2000/svg" viewBox="0 0 448 512"><!--! Font Awesome Pro 6.4.0 by @fontawesome - https://fontawesome.com License - https://fontawesome.com/license (Commercial License) Copyright 2023 Fonticons, Inc. --><defs><style>.fa-secondary{opacity:.4}</style></defs><path class="fa-primary" d="M280 304c2.7 0 5.3 .1 8 .2V362c-27.6 7.1-48 32.2-48 62v40c0 8.8 7.2 16 16 16h16c8.8 0 16-7.2 16-16s-7.2-16-16-16V424c0-17.7 14.3-32 32-32s32 14.3 32 32v24c-8.8 0-16 7.2-16 16s7.2 16 16 16h16c8.8 0 16-7.2 16-16V424c0-29.8-20.4-54.9-48-62V308.8C393.5 326.7 448 393 448 472v8c0 17.7-14.3 32-32 32H32c-17.7 0-32-14.3-32-32v-8c0-79 54.5-145.3 128-163.2v61.5c-23.1 6.9-40 28.3-40 53.7c0 30.9 25.1 56 56 56s56-25.1 56-56c0-25.4-16.9-46.8-40-53.7V304.2c2.7-.1 5.3-.2 8-.2H280zM144 400a24 24 0 1 1 0 48 24 24 0 1 1 0-48z"/><path class="fa-secondary" d="M352 128A128 128 0 1 1 96 128a128 128 0 1 1 256 0z"/></svg>

<svg xmlns="http://www.w3.org/2000/svg" viewBox="0 0 448 512"><!--! Font Awesome Pro 6.3.0 by @fontawesome - https://fontawesome.com License - https://fontawesome.com/license (Commercial License) Copyright 2023 Fonticons, Inc. --><defs><style>.fa-secondary{opacity:.4}</style></defs><path class="fa-primary" d="M280 304C282.7 304 285.3 304.1 288 304.2V362C260.4 369.1 240 394.2 240 424V464C240 472.8 247.2 480 256 480H272C280.8 480 288 472.8 288 464C288 455.2 280.8 448 272 448V424C272 406.3 286.3 392 304 392C321.7 392 336 406.3 336 424V448C327.2 448 320 455.2 320 464C320 472.8 327.2 480 336 480H352C360.8 480 368 472.8 368 464V424C368 394.2 347.6 369.1 320 362V308.8C393.5 326.7 448 392.1 448 472V480C448 497.7 433.7 512 416 512H32C14.33 512 0 497.7 0 480V472C0 393 54.53 326.7 128 308.8V370.3C104.9 377.2 88 398.6 88 424C88 454.9 113.1 480 144 480C174.9 480 200 454.9 200 424C200 398.6 183.1 377.2 160 370.3V304.2C162.7 304.1 165.3 304 168 304H280zM120 424C120 410.7 130.7 400 144 400C157.3 400 168 410.7 168 424C168 437.3 157.3 448 144 448C130.7 448 120 437.3 120 424z"/><path class="fa-secondary" d="M96 128C96 57.31 153.3 0 224 0C294.7 0 352 57.31 352 128C352 198.7 294.7 256 224 256C153.3 256 96 198.7 96 128z"/></svg>
